src/svgs/icon-feedback-like.svg

<svg width="24" height="24" viewBox="0 0 24 24" fill="none" xmlns="http://www.w3.org/2000/svg">
<g id="icon-good">
<g id="Group">
<path id="Union" fill-rule="evenodd" clip-rule="evenodd" d="M12.3462 5.33563L12.3468 5.33479C12.7513 4.81247 13.5284 4.81054 13.9252 5.2978C14.088 5.49844 14.1761 5.74147 14.1761 5.98836V9.66626C14.1761 10.184 14.5958 10.6038 15.1136 10.6038H18.6002C18.959 10.6038 19.3003 10.7827 19.5112 11.0919L19.5121 11.0932L19.8809 11.6409L19.8839 11.6453C20.0583 11.9011 20.1096 12.2276 20.0178 12.5397L18.4861 17.8555C18.3549 18.3149 17.9273 18.6377 17.4418 18.6377H10.3672C10.0667 18.6377 9.7739 18.5109 9.56695 18.2934L8.43645 17.071V10.4237L12.3462 5.33563ZM7.61615 8.41391L10.861 4.19117L10.8625 4.18917C11.9879 2.73286 14.2018 2.6675 15.3795 4.11435C15.8013 4.63345 16.0511 5.29067 16.0511 5.98836V8.72876H18.6002C19.5906 8.72876 20.5085 9.22411 21.0626 10.0389L21.065 10.0424L21.4331 10.589L21.4348 10.5915C21.9333 11.3243 22.0617 12.2328 21.8174 13.0662L21.8166 13.0688L20.289 18.3706C19.9252 19.6429 18.7556 20.5127 17.4418 20.5127H10.3672C9.54424 20.5127 8.75863 20.1683 8.20092 19.5778L8.19422 19.5706L8.1279 19.4989C7.75433 20.1135 7.07847 20.5239 6.30673 20.5239H4.19222C3.01601 20.5239 2.0625 19.5704 2.0625 18.3942V10.0937C2.0625 8.91744 3.01601 7.96393 4.19222 7.96393H6.30673C6.80046 7.96393 7.25496 8.13194 7.61615 8.41391ZM3.9375 10.0937C3.9375 9.95297 4.05154 9.83893 4.19222 9.83893H6.30673C6.44741 9.83893 6.56145 9.95297 6.56145 10.0937V18.3942C6.56145 18.5349 6.44741 18.6489 6.30673 18.6489H4.19222C4.05154 18.6489 3.9375 18.5349 3.9375 18.3942V10.0937Z" fill="black"/>
</g>
</g>
</svg>

<svg width="24" height="24" fill="none" xmlns="http://www.w3.org/2000/svg"><path fill-rule="evenodd" clip-rule="evenodd" d="M12.346 5.336v-.001c.405-.523 1.182-.524 1.58-.037.162.2.25.443.25.69v3.678c0 .518.42.938.938.938H18.6c.359 0 .7.179.911.488l.001.001.369.548.003.004c.174.256.226.583.134.895l-1.532 5.316c-.131.459-.559.782-1.044.782h-7.075c-.3 0-.593-.127-.8-.345l-1.13-1.222v-6.647l3.91-5.088Zm-4.73 3.078 3.245-4.223.002-.002c1.125-1.456 3.339-1.522 4.517-.075.421.52.671 1.177.671 1.874v2.74h2.55c.99 0 1.908.496 2.462 1.31l.002.004.368.547.002.002a2.93 2.93 0 0 1 .382 2.475v.003l-1.528 5.302a2.963 2.963 0 0 1-2.847 2.142h-7.075a2.988 2.988 0 0 1-2.166-.935l-.007-.007-.066-.072a2.128 2.128 0 0 1-1.821 1.025H4.192a2.13 2.13 0 0 1-2.13-2.13v-8.3a2.13 2.13 0 0 1 2.13-2.13h2.115c.493 0 .948.168 1.31.45Zm-3.678 1.68c0-.141.114-.255.254-.255h2.115c.14 0 .254.114.254.255v8.3c0 .14-.114.255-.254.255H4.192a.255.255 0 0 1-.255-.255v-8.3Z" fill="#000"/></svg>
